automatic/svg/Atari - 5200-content.svg

<?xml version="1.0" encoding="UTF-8" standalone="no"?>
<svg
   xmlns:dc="http://purl.org/dc/elements/1.1/"
   xmlns:cc="http://creativecommons.org/ns#"
   xmlns:rdf="http://www.w3.org/1999/02/22-rdf-syntax-ns#"
   xmlns:svg="http://www.w3.org/2000/svg"
   xmlns="http://www.w3.org/2000/svg"
   viewBox="0 0 320 320"
   height="320"
   width="320"
   xml:space="preserve"
   version="1.1"
   id="svg2"><metadata
     id="metadata8"><rdf:RDF><cc:Work
         rdf:about=""><dc:format>image/svg+xml</dc:format><dc:type
           rdf:resource="http://purl.org/dc/dcmitype/StillImage" /></cc:Work></rdf:RDF></metadata><defs
     id="defs6"><clipPath
       id="clipPath20"
       clipPathUnits="userSpaceOnUse"><path
         id="path22"
         d="M 0,256 256,256 256,0 0,0 0,256 Z" /></clipPath></defs><g
     transform="matrix(1.25,0,0,-1.25,0,320)"
     id="g10"><g
       transform="translate(244,28)"
       id="g12"><path
         id="path14"
         style="fill:#f2f2f2;fill-opacity:1;fill-rule:nonzero;stroke:none"
         d="m 0,0 -8,-8 -216,0 -8,8 0,4 20,0 0,8 -20,0 0,4 20,0 0,8 -20,0 0,4 20,0 0,8 -20,0 0,4 20,0 0,8 -20,0 0,4 20,0 0,8 -20,0 0,4 20,0 0,8 -20,0 0,4 20,0 0,8 -20,0 0,4 20,0 0,8 -20,0 0,4 20,0 0,8 -20,0 0,4 20,0 0,8 -20,0 0,4 20,0 0,8 -20,0 0,4 20,0 0,8 -20,0 0,4 20,0 0,8 -20,0 0,4 20,0 0,8 -20,0 0,4 20,0 0,8 -20,0 0,4 20,0 0,8 -20,0 0,8 8,8 216,0 8,-7.99 0,-8.01 -20,0 0,-8 20,0 0,-4 -20,0 0,-8 20,0 0,-4 -20,0 0,-8 20,0 0,-4 -20,0 0,-8 20,0 0,-4 -20,0 0,-8 20,0 0,-4 -20,0 0,-8 20,0 0,-4 -20,0 0,-8 20,0 0,-4 -20,0 0,-8 20,0 0,-4 -20,0 0,-8 20,0 0,-4 -20,0 0,-8 20,0 0,-4 -20,0 0,-8 20,0 0,-4 -20,0 0,-8 20,0 0,-4 -20,0 0,-8 20,0 0,-4 -20,0 0,-8 20,0 0,-4 -20,0 0,-8 20,0 0,-4 -20,0 0,-8 20,0 0,-4 z m 2.826,202.84 -8,7.99 -1.171,1.17 -1.655,0 -216,0 -1.657,0 -1.172,-1.171 -8,-8 -1.171,-1.172 0,-1.657 0,-8 0,-4 0,-4 0,-4 0,-4 0,-4 0,-4 0,-4 0,-4 0,-4 0,-4 0,-4 0,-4 0,-4 0,-4 0,-4 0,-4 0,-4 0,-4 0,-4 0,-4 0,-4 0,-4 0,-4 0,-4 0,-4 0,-4 0,-4 0,-4 0,-4 0,-4 0,-4 0,-4 0,-4 0,-4 0,-4 0,-4 0,-4 0,-4 0,-4 0,-4 0,-4 0,-4 0,-4 0,-4 0,-4 0,-4 0,-4 0,-4 0,-1.657 1.171,-1.171 8,-8 1.172,-1.172 1.657,0 216,0 1.657,0 1.171,1.172 8,8 L 4,-1.657 4,0 l 0,4 0,4 0,4 0,4 0,4 0,4 0,4 0,4 0,4 0,4 0,4 0,4 0,4 0,4 0,4 0,4 0,4 0,4 0,4 0,4 0,4 0,4 0,4 0,4 0,4 0,4 0,4 0,4 0,4 0,4 0,4 0,4 0,4 0,4 0,4 0,4 0,4 0,4 0,4 0,4 0,4 0,4 0,4 0,4 0,4 0,4 0,4 0,4 0,8.01 0,1.658 -1.174,1.172 z" /></g><g
       id="g16"><g
         clip-path="url(#clipPath20)"
         id="g18"><g
           transform="translate(40,192)"
           id="g24"><path
             id="path26"
             style="fill:#f2f2f2;fill-opacity:1;fill-rule:nonzero;stroke:none"
             d="m 0,0 0,20 c 0,2.209 1.791,4 4,4 l 168,0 c 2.209,0 4,-1.791 4,-4 L 176,0 0,0 Z m 176,-104 c 0,-2.209 -1.791,-4 -4,-4 l -168,0 c -2.209,0 -4,1.791 -4,4 l 0,76 28,0 0,-64 0,-4 4,0 112,0 4,0 0,4 0,64 28,0 0,-76 z m -144,80 -4,0 -28,0 0,20 176,0 0,-20 -28,0 -4,0 -112,0 z m 0,-4 112,0 0,-64 -112,0 0,64 z M 172,28 4,28 c -4.411,0 -8,-3.589 -8,-8 l 0,-20 0,-4 0,-20 0,-4 0,-76 c 0,-4.411 3.589,-8 8,-8 l 168,0 c 4.411,0 8,3.589 8,8 l 0,76 0,4 0,20 0,4 0,20 c 0,4.411 -3.589,8 -8,8" /></g></g></g></g></svg>

<?xml version="1.0" encoding="UTF-8" standalone="no"?>
<svg
   xmlns:dc="http://purl.org/dc/elements/1.1/"
   xmlns:cc="http://creativecommons.org/ns#"
   xmlns:rdf="http://www.w3.org/1999/02/22-rdf-syntax-ns#"
   xmlns:svg="http://www.w3.org/2000/svg"
   xmlns="http://www.w3.org/2000/svg"
   viewBox="0 0 320 298.66665"
   height="298.66666"
   width="320"
   xml:space="preserve"
   id="svg2"
   version="1.1"><metadata
     id="metadata8"><rdf:RDF><cc:Work
         rdf:about=""><dc:format>image/svg+xml</dc:format><dc:type
           rdf:resource="http://purl.org/dc/dcmitype/StillImage" /></cc:Work></rdf:RDF></metadata><defs
     id="defs6"><clipPath
       id="clipPath22"
       clipPathUnits="userSpaceOnUse"><path
         id="path20"
         d="M 0,256 H 256 V 0 H 0 Z" /></clipPath></defs><g
     transform="matrix(1.3333333,0,0,-1.3333333,-10.666666,319.99999)"
     id="g10"><g
       transform="translate(244,28)"
       id="g12"><path
         id="path14"
         style="fill:#f2f2f2;fill-opacity:1;fill-rule:nonzero;stroke:none"
         d="m 0,0 -8,-8 h -216 l -8,8 v 4 h 20 v 8 h -20 v 4 h 20 v 8 h -20 v 4 h 20 v 8 h -20 v 4 h 20 v 8 h -20 v 4 h 20 v 8 h -20 v 4 h 20 v 8 h -20 v 4 h 20 v 8 h -20 v 4 h 20 v 8 h -20 v 4 h 20 v 8 h -20 v 4 h 20 v 8 h -20 v 4 h 20 v 8 h -20 v 4 h 20 v 8 h -20 v 4 h 20 v 8 h -20 v 4 h 20 v 8 h -20 v 4 h 20 v 8 h -20 v 4 h 20 v 8 h -20 v 8 l 8,8 H -8 l 8,-7.99 V 192 h -20 v -8 H 0 v -4 h -20 v -8 H 0 v -4 h -20 v -8 H 0 v -4 h -20 v -8 H 0 v -4 h -20 v -8 H 0 v -4 h -20 v -8 H 0 v -4 h -20 v -8 H 0 v -4 h -20 v -8 H 0 V 96 H -20 V 88 H 0 V 84 H -20 V 76 H 0 V 72 H -20 V 64 H 0 V 60 H -20 V 52 H 0 V 48 H -20 V 40 H 0 V 36 H -20 V 28 H 0 V 24 H -20 V 16 H 0 V 12 H -20 V 4 H 0 Z m 2.826,202.84 -8,7.99 -1.171,1.17 H -8 h -216 -1.657 l -1.172,-1.171 -8,-8 -1.171,-1.172 V 200 v -8 -4 -4 -4 -4 -4 -4 -4 -4 -4 -4 -4 -4 -4 -4 -4 -4 -4 -4 -4 -4 -4 -4 -4 V 96 92 88 84 80 76 72 68 64 60 56 52 48 44 40 36 32 28 24 20 16 12 8 4 0 -1.657 l 1.171,-1.171 8,-8 1.172,-1.172 H -224 -8 -6.343 l 1.171,1.172 8,8 L 4,-1.657 V 0 v 4 4 4 4 4 4 4 4 4 4 4 4 4 4 4 4 4 4 4 4 4 4 4 4 4 4 4 4 4 4 4 4 4 4 4 4 4 4 4 4 4 4 4 4 4 4 4 4 8.01 1.658 z" /></g><g
       id="g16"><g
         clip-path="url(#clipPath22)"
         id="g18"><g
           transform="translate(40,192)"
           id="g24"><path
             id="path26"
             style="fill:#f2f2f2;fill-opacity:1;fill-rule:nonzero;stroke:none"
             d="m 0,0 v 20 c 0,2.209 1.791,4 4,4 h 168 c 2.209,0 4,-1.791 4,-4 V 0 Z m 176,-104 c 0,-2.209 -1.791,-4 -4,-4 H 4 c -2.209,0 -4,1.791 -4,4 v 76 h 28 v -64 -4 h 4 112 4 v 4 64 h 28 z M 32,-24 H 28 0 v 20 h 176 v -20 h -28 -4 z m 0,-4 H 144 V -92 H 32 Z M 172,28 H 4 c -4.411,0 -8,-3.589 -8,-8 v -20 -4 -20 -4 -76 c 0,-4.411 3.589,-8 8,-8 h 168 c 4.411,0 8,3.589 8,8 v 76 4 20 4 20 c 0,4.411 -3.589,8 -8,8" /></g></g></g></g></svg>
